X:1
T:Entendez vous point
T:Jacques Arcadelt
T:Source : XXVe Livre de Chansons nouvelles à 4 parties---Paris---P.Attaignant---1547. Editor : André Vierendeels (14/01/15).
T:Entendez vous point
C:Jacques Arcadelt
%%score [ 1 [ 2 3 ] 4 ]
L:1/8
Q:1/4=100
M:2/2
K:F
V:1 treble nm="Superius" snm="S"
V:2 treble-8 nm="Tenor 1" snm="T 1"
V:3 treble-8 nm="Tenor 2" snm="T 2"
V:4 bass nm="Bassus" snm="B"
V:1
 z8 | z8 | c4 B2 G2 | A2 B2 c2 A2 | G8- | G4 A4 | A2 B2 G2 A2 | G2 F4 E2 | F8- | F4 z2 B2 | %10
w: ||En- ten- dez|vous point vo- stre'a-|my,|_ re-|veil- lez vous cest|trop dor- *|my,|_ qui|
 A3 G F2 E2 | FG AB c2 d2- | dc c4 B2 | c4 z2 c2 | B2 G2 A2 B2 | c2 A2 G4 | G4 F2 D2 | %17
w: chan- te la- mou-|reux _ _ _ _ ra-|* * ma- *|ge, las,|il na bon iour|ne de- my,|las, il na|
 E2 F2 G2 E2 | D4 z2 B2 | A3 G F2 E2 | FG AB c2 d2- | dc c4 B2 | c4 z2 c2 | c2 c2 A4 | F4 B3 A | %25
w: bon iour ne de-|my pour|ay- mer vo- stre|per- * * * * so-|* * na- *|ge, re-|veil- lez vous|cest trop _|
 G2 F2 E4 | z2 c2 c3 B | A3 G F2 E2 | D3 E F2 G2- | GF F4 E2 | F8 | z2 c2 c3 B | A3 G F2 E2 | %33
w: _ dor- my,|fai- sons au|dieu a- mour hom-|ma- * * *||ge,|fai- sons au|dieu a- mour hom-|
 D3 E F2 G2- | GF F4 E2 | F8 |] %36
w: ma- * * *||ge.|
V:2
 z8 | z4 f4 | e2 c2 d2 e2 | f2 d2 e2 f2- | f2 e2 d4 | e4 z2 f2 | f2 f2 e3 c | d2 B2 c2 c2 | A6 A2 | %9
w: |En-|ten- dez vous point|vo- stre'a- * *|* * my,|_ re-|veil- lez vous _|_ cest trop dor-|my, qui|
 d6 d2 | d2 A2 B2 c2- | c2 F2 G2 AB | cd ef g4 | z2 f2 e3 c | d2 e2 f2 d2 | c2 f4 e2 | d8 | %17
w: chan- te|la- mou- reux- ra-|* * * ma- *|* * * * ge,|las, il _|_ na bon iour|ne _ de-|my,|
 z2 d2 B2 c2 | F3 E FD d2 | d3 A B2 c2 | c2 F2 G2 AB | cd ef ga g2- | g2 f4 e2 | f2 c2 z2 A2 | %24
w: iour ne de-|my, _ _ _ pour|ay- mer vo- stre|per- so- na- * *|||* ge, re-|
 A2 A2 d3 d | d2 d2 c3 B | A2 GF E4 | z2 F2 c2 c2 | A2 A2 d4 | c2 c2 c2 c2 | d3 c de f2- | %31
w: veil- lez vous cest|trop dor- my, _|_ fai- * sons|au dieu da-|mour hom- ma-|ge, fai- sons au|dieu _ _ _ da-|
 f2 ed e2 e2 | f2 d2 c3 B | A4 d4 | c8 | A8 |] %36
w: * * * mour, fai-|sons au dieu da-|mour hom-|ma-|ge.|
V:3
 z4 c4 | B2 G2 A2 B2 | c2 A2 G2 c2 | c2 B2 G2 d2- | d2 c4 B2 | c2 c2 c2 c2 | d4 c4 | BA GF G2 G2 | %8
w: En-|ten- dez vous point|vo- stre'a- my, en-|ten- dez vous point|_ vo- stre'a-|my,re- veil- lez vous|cest trop|_ _ _ _ _ dor-|
 F4 z4 | B4 A2 G2 | F3 E F2 G2 | AB cd e2 f2 | e2 dc d4 | c4 z2 G2- | G2 c4 B2 | e2 d2 z2 c2 | %16
w: my,|qui chan- te|la- * * mou-|reux _ _ _ _ ra-|ma- * * *|ge, las,|_ il na|bon iour, las,|
 B3 G A2 B2 | c2 A2 G4 | z2 B2 A2 G2 | F3 E F2 G2 | AB cd e2 f2 | e2 dc d4 | c2 c2 c2 G2 | %23
w: il na bon iour|ne de- my,|pour ay- mer|vo- stre per- so-|na- * * * * *||ge, re- veil- lez|
 AG AB c4 | z4 z2 F2 | B2 B2 G2 c2 | c3 B A2 G2 | F2 A2 A2 G2 | F3 G A2 B2 | A4 G4 | z2 B2 B2 B2 | %31
w: vous _ _ _ _|cest|trop dor- my, fai-|sons _ _ au|dieu a- mour hom-|ma- * * *|* ge,|fai- sons au|
 A2 A2 G4 | z2 F2 A2 G2 | F3 G A2 B2 | A4 G4 | F8 |] %36
w: dieu a- mour,|au dieu a-|mour _ _ hom-|ma- *|ge.|
V:4
 F,4 E,2 C,2 | D,2 E,2 F,2 D,2 | C,4 z2 C,2 | F,2 G,2 C,2 D,2 | B,,2 C,2 G,,4 | C,4 F,4 | %6
w: En- ten- dez|vous point vo- stre'a-|my, en-|ten- dez vous point|vo- stre'a- my,|_ re-|
 D,2 B,,2 C,2 A,,2 | B,,2 D,2 C,4 | z2 F,2 D,3 C, | B,,3 C, D,2 G,,2 | D,6 C,2 | F,4 E,2 D,2 | %12
w: veil- lez vous cest|trop dor- my,|qui chan- te|la- * * mou-|rux ra-|ma- * *|
 A,4 G,3 F, | E,2 F,2 C,4 | z2 C,2 F,2 G,2 | C,2 D,2 B,,2 C,2 | G,,2 G,,2 D,3 D, | %17
w: |* * ge,|las, il na|bon iour ne de-|my, las, il na|
 C,2 D,2 G,,2 C,2 | B,,3 C, D,2 G,,2 | D,6 C,2 | F,3 F, E,2 D,2 | A,4 G,3 F, | E,2 F,2 C,4 | %23
w: bon iour ne de-|my, _ _ pour|ay- mer|vo- stre per- so-|na- * *|* * ge,|
 F,4 F,2 F,2 | D,4 B,,4 | B,,2 B,,2 C,4 | z2 C,2 C,2 C,2 | D,3 E, F,2 C,2 | D,6 G,,2 | %29
w: re- veil- lez|vous cest|trop dor- my,|fai- sons au|dieu da- mour hom-|ma- *|
 A,,3 B,, C,4 | B,,8 | z2 C,2 C,2 C,2 | D,3 E, F,2 C,2 | D,6 G,,2 | A,,3 B,, C,4 | F,,8 |] %36
w: |ge,|fai- sons au|dieu _ _ da-|mour hom-|ma- * *|ge.|

